X:21206 
T:YESTERDAY MORNING 
B:DMI.0323
Z:Nordberg/Black
R:jig
%Q:1/4=160
M:6/8
L:1/8
K:G
F|DGG GAG|FDF ABc|BdB cAc|BGA FGE|
DGG GAG|FDF ABc|BdB c2B|AGF G2:|
c|Bdd ded|efg d2c|BGB cAc|BGA FGE|
DGG GAG|FDF ABc|BdB c2B|AGF G2:|

%%%

